;FLAVOR:Marlin
;TIME:10193
;Filament used: 5.52864m
;Layer height: 0.2
;MINX:40.021
;MINY:28.147
;MINZ:0.2
;MAXX:187.572
;MAXY:203.921
;MAXZ:16.6
;Generated with Cura_SteamEngine 4.13.0
M140 S50
M105
M190 S50
M104 S200
M105
M109 S200
M82 ;absolute extrusion mode
; Ender 3 Custom Start G-code
G92 E0 ; Reset Extruder
G28 ; Home all axes
G1 Z2.0 F3000 ; Move Z Axis up little to prevent scratching of Heat Bed
G1 X0.1 Y20 Z0.3 F5000.0 ; Move to start position
G1 X0.1 Y200.0 Z0.3 F1500.0 E15 ; Draw the first line
G1 X0.4 Y200.0 Z0.3 F5000.0 ; Move to side a little
G1 X0.4 Y20 Z0.3 F1500.0 E30 ; Draw the second line
G92 E0 ; Reset Extruder
G1 Z2.0 F3000 ; Move Z Axis up little to prevent scratching of Heat Bed
G1 X5 Y20 Z0.3 F5000.0 ; Move over to prevent blob squish
G92 E0
G92 E0
G1 F2700 E-5
;LAYER_COUNT:83
;LAYER:0
M107
G0 F6000 X108.351 Y84.311 Z0.2
;TYPE:SKIRT
G1 F2700 E0
G1 F1200 X112.111 Y79.383 E0.20617
G1 X112.621 Y78.78 E0.23243
G1 X113.19 Y78.232 E0.25871
G1 X113.446 Y78.031 E0.26953
G1 X113.767 Y77.363 E0.29418
G1 X114.18 Y76.689 E0.32048
G1 X114.417 Y76.36 E0.33396
G1 X118.177 Y71.433 E0.5401
G1 X118.688 Y70.83 E0.56639
G1 X119.256 Y70.282 E0.59264
G1 X119.512 Y70.082 E0.60345
G1 X119.837 Y69.406 E0.62839
G1 X120.25 Y68.733 E0.65466
G1 X120.483 Y68.41 E0.6679
G1 X124.243 Y63.483 E0.87404
G1 X124.754 Y62.88 E0.90033
G1 X125.322 Y62.332 E0.92658
G1 X125.579 Y62.13 E0.93745
G1 X125.904 Y61.456 E0.96234
G1 X126.317 Y60.783 E0.98861
G1 X126.55 Y60.46 E1.00185
G1 X130.31 Y55.533 E1.20799
G1 X130.821 Y54.93 E1.23428
G1 X131.389 Y54.382 E1.26053
G1 X131.645 Y54.181 E1.27136
G1 X131.966 Y53.514 E1.29598
G1 X132.379 Y52.84 E1.32227
G1 X132.616 Y52.512 E1.33573
G1 X136.376 Y47.584 E1.54189
G1 X136.886 Y46.981 E1.56816
G1 X137.455 Y46.433 E1.59444
G1 X137.711 Y46.232 E1.60526
G1 X138.032 Y45.564 E1.62991
G1 X138.445 Y44.89 E1.6562
G1 X138.682 Y44.561 E1.66969
G1 X142.442 Y39.634 E1.87583
G1 X142.953 Y39.031 E1.90212
G1 X143.521 Y38.483 E1.92837
G1 X143.778 Y38.281 E1.93924
G1 X144.103 Y37.607 E1.96413
G1 X144.516 Y36.934 E1.99039
G1 X144.749 Y36.611 E2.00364
G1 X148.509 Y31.684 E2.20978
G1 X149.02 Y31.081 E2.23607
G1 X149.588 Y30.533 E2.26232
G1 X150.209 Y30.046 E2.28857
G1 X150.876 Y29.623 E2.31483
G1 X151.583 Y29.27 E2.34112
G1 X152.321 Y28.991 E2.36736
G1 X153.084 Y28.787 E2.39363
G1 X153.864 Y28.662 E2.4199
G1 X154.652 Y28.616 E2.44616
G1 X154.742 Y28.62 E2.44915
G1 X155.152 Y28.474 E2.46363
G1 X155.919 Y28.286 E2.48989
G1 X156.701 Y28.177 E2.51615
G1 X157.49 Y28.147 E2.54242
G1 X158.279 Y28.197 E2.56871
G1 X159.058 Y28.326 E2.59497
G1 X159.819 Y28.534 E2.62121
G1 X160.557 Y28.817 E2.6475
G1 X161.261 Y29.174 E2.67375
G1 X162.122 Y29.745 E2.70812
G1 X167.135 Y33.57 E2.91784
G1 X167.738 Y34.08 E2.94411
G1 X168.286 Y34.649 E2.97038
G1 X168.454 Y34.863 E2.97943
G1 X168.507 Y34.883 E2.98132
G1 X169.211 Y35.24 E3.00757
G1 X170.073 Y35.811 E3.04196
G1 X184.504 Y46.824 E3.64574
G1 X185.107 Y47.335 E3.67203
G1 X185.655 Y47.903 E3.69828
G1 X186.142 Y48.524 E3.72453
G1 X186.565 Y49.191 E3.7508
G1 X186.918 Y49.898 E3.77708
G1 X187.197 Y50.636 E3.80332
G1 X187.401 Y51.399 E3.82959
G1 X187.526 Y52.179 E3.85587
G1 X187.572 Y52.968 E3.88215
G1 X187.538 Y53.756 E3.90839
G1 X187.424 Y54.538 E3.93467
G1 X187.232 Y55.304 E3.96094
G1 X186.963 Y56.046 E3.98719
G1 X186.621 Y56.758 E4.01346
G1 X186.208 Y57.431 E4.03972
G1 X185.973 Y57.757 E4.05309
G1 X76.779 Y200.853 E10.03989
G1 X76.269 Y201.455 E10.06613
G1 X75.7 Y202.004 E10.09243
G1 X75.079 Y202.491 E10.11868
G1 X74.412 Y202.914 E10.14495
G1 X73.705 Y203.267 E10.17123
G1 X72.967 Y203.546 E10.19747
G1 X72.204 Y203.75 E10.22374
G1 X71.424 Y203.875 E10.25002
G1 X70.636 Y203.921 E10.27627
G1 X69.847 Y203.887 E10.30254
G1 X69.065 Y203.773 E10.32882
G1 X68.299 Y203.581 E10.35509
G1 X67.557 Y203.312 E10.38134
G1 X66.845 Y202.97 E10.40761
G1 X66.172 Y202.557 E10.43387
G1 X65.847 Y202.322 E10.44721
G1 X51.416 Y191.311 E11.05095
G1 X50.813 Y190.801 E11.07722
G1 X50.265 Y190.232 E11.10349
G1 X50.087 Y190.005 E11.11309
G1 X49.627 Y189.796 E11.12989
G1 X48.945 Y189.398 E11.15615
G1 X48.477 Y189.068 E11.1752
G1 X43.466 Y185.244 E11.38485
G1 X42.863 Y184.734 E11.41112
G1 X42.315 Y184.165 E11.4374
G1 X41.828 Y183.544 E11.46364
G1 X41.405 Y182.877 E11.48991
G1 X41.052 Y182.17 E11.5162
G1 X40.773 Y181.432 E11.54244
G1 X40.569 Y180.669 E11.56871
G1 X40.444 Y179.889 E11.59498
G1 X40.398 Y179.101 E11.62123
G1 X40.395 Y178.875 E11.62875
G1 X40.192 Y178.112 E11.65501
G1 X40.067 Y177.332 E11.68129
G1 X40.021 Y176.543 E11.70757
G1 X40.056 Y175.755 E11.73381
G1 X40.17 Y174.973 E11.76009
G1 X40.362 Y174.207 E11.78636
G1 X40.631 Y173.465 E11.81261
G1 X40.974 Y172.753 E11.83889
G1 X41.387 Y172.08 E11.86516
G1 X41.62 Y171.757 E11.8784
G1 X45.38 Y166.83 E12.08454
G1 X45.891 Y166.227 E12.11083
G1 X46.459 Y165.679 E12.13708
G1 X46.717 Y165.477 E12.14798
G1 X47.037 Y164.811 E12.17256
G1 X47.45 Y164.137 E12.19885
G1 X47.687 Y163.809 E12.21231
G1 X51.447 Y158.881 E12.41847
G1 X51.957 Y158.278 E12.44474
G1 X52.526 Y157.73 E12.47102
G1 X52.782 Y157.529 E12.48184
G1 X53.103 Y156.861 E12.50649
G1 X53.516 Y156.187 E12.53278
G1 X53.753 Y155.858 E12.54627
G1 X57.513 Y150.931 E12.75241
G1 X58.024 Y150.328 E12.7787
G1 X58.592 Y149.78 E12.80495
G1 X58.848 Y149.579 E12.81577
G1 X59.176 Y148.899 E12.84088
G1 X59.82 Y147.908 E12.88019
G1 X63.58 Y142.981 E13.08633
G1 X64.091 Y142.378 E13.11262
G1 X64.659 Y141.83 E13.13887
G1 X64.915 Y141.63 E13.14968
G1 X65.24 Y140.954 E13.17463
G1 X65.653 Y140.281 E13.20089
G1 X65.886 Y139.958 E13.21414
G1 X69.646 Y135.031 E13.42028
G1 X70.157 Y134.428 E13.44656
G1 X70.725 Y133.88 E13.47281
G1 X70.981 Y133.679 E13.48364
G1 X71.302 Y133.012 E13.50826
G1 X71.715 Y132.338 E13.53455
G1 X71.952 Y132.01 E13.54801
G1 X75.712 Y127.082 E13.75418
G1 X76.222 Y126.479 E13.78044
G1 X76.791 Y125.931 E13.80672
G1 X77.048 Y125.729 E13.81759
G1 X77.369 Y125.062 E13.84221
G1 X77.782 Y124.388 E13.8685
G1 X78.019 Y124.06 E13.88196
G1 X81.779 Y119.132 E14.08813
G1 X82.289 Y118.529 E14.1144
G1 X82.858 Y117.981 E14.14067
G1 X83.114 Y117.78 E14.1515
G1 X83.435 Y117.112 E14.17615
G1 X83.848 Y116.438 E14.20244
G1 X84.085 Y116.109 E14.21592
G1 X87.845 Y111.182 E14.42206
G1 X88.356 Y110.579 E14.44835
G1 X88.924 Y110.031 E14.4746
G1 X89.18 Y109.831 E14.48541
G1 X89.505 Y109.155 E14.51036
G1 X89.918 Y108.482 E14.53662
G1 X90.151 Y108.159 E14.54986
G1 X93.911 Y103.232 E14.75601
G1 X94.422 Y102.629 E14.78229
G1 X94.99 Y102.081 E14.80854
G1 X95.247 Y101.879 E14.81942
G1 X95.572 Y101.205 E14.8443
G1 X95.985 Y100.532 E14.87057
G1 X96.218 Y100.209 E14.88381
G1 X99.978 Y95.282 E15.08995
G1 X100.489 Y94.679 E15.11624
G1 X101.057 Y94.131 E15.14249
G1 X101.313 Y93.93 E15.15332
G1 X101.634 Y93.263 E15.17794
G1 X102.047 Y92.589 E15.20423
G1 X102.284 Y92.261 E15.21769
G1 X106.044 Y87.333 E15.42386
G1 X106.554 Y86.73 E15.45012
G1 X107.123 Y86.182 E15.4764
G1 X107.38 Y85.98 E15.48727
G1 X107.704 Y85.308 E15.51208
G1 X108.117 Y84.634 E15.53837
G1 X108.351 Y84.311 E15.55164
G0 F6000 X108.669 Y84.553
G1 F1200 X112.429 Y79.625 E15.75781
G1 X112.927 Y79.039 E15.78338
G1 X113.482 Y78.507 E15.80896
G1 X113.787 Y78.271 E15.82178
G1 X113.899 Y77.991 E15.83181
G1 X114.257 Y77.311 E15.85737
G1 X114.735 Y76.603 E15.88578
G1 X118.495 Y71.676 E16.09192
G1 X118.993 Y71.089 E16.11753
G1 X119.549 Y70.558 E16.1431
G1 X119.853 Y70.323 E16.15588
G1 X119.968 Y70.035 E16.16619
G1 X120.327 Y69.355 E16.19177
G1 X120.801 Y68.653 E16.21994
G1 X124.561 Y63.726 E16.42608
G1 X125.059 Y63.139 E16.45168
G1 X125.615 Y62.608 E16.47726
G1 X125.92 Y62.372 E16.49008
G1 X126.035 Y62.085 E16.50037
G1 X126.394 Y61.405 E16.52594
G1 X126.868 Y60.703 E16.55411
G1 X130.628 Y55.776 E16.76025
G1 X131.126 Y55.189 E16.78586
G1 X131.682 Y54.658 E16.81143
G1 X131.985 Y54.423 E16.82418
G1 X132.098 Y54.142 E16.83426
G1 X132.456 Y53.462 E16.85982
G1 X132.934 Y52.754 E16.88823
G1 X136.694 Y47.826 E17.09439
G1 X137.192 Y47.24 E17.11997
G1 X137.747 Y46.708 E17.14554
G1 X138.052 Y46.472 E17.15837
G1 X138.164 Y46.192 E17.1684
G1 X138.522 Y45.512 E17.19396
G1 X139 Y44.804 E17.22237
G1 X142.76 Y39.877 E17.42851
G1 X143.258 Y39.29 E17.45412
G1 X143.814 Y38.759 E17.47969
G1 X144.119 Y38.523 E17.49251
G1 X144.234 Y38.236 E17.5028
G1 X144.593 Y37.556 E17.52837
G1 X145.067 Y36.854 E17.55655
G1 X148.827 Y31.927 E17.76269
G1 X149.325 Y31.34 E17.78829
G1 X149.881 Y30.809 E17.81386
G1 X150.489 Y30.338 E17.83944
G1 X151.143 Y29.933 E17.86503
G1 X151.835 Y29.597 E17.89061
G1 X152.558 Y29.336 E17.91618
G1 X153.305 Y29.151 E17.94177
G1 X154.067 Y29.044 E17.96737
G1 X154.815 Y29.018 E17.99226
G1 X155.344 Y28.835 E18.01088
G1 X156.093 Y28.661 E18.03645
G1 X156.856 Y28.565 E18.06203
G1 X157.625 Y28.55 E18.08761
G1 X158.392 Y28.614 E18.11321
G1 X159.147 Y28.757 E18.13877
G1 X159.884 Y28.979 E18.16437
G1 X160.594 Y29.275 E18.18995
G1 X161.269 Y29.644 E18.21554
G1 X161.88 Y30.063 E18.24018
G1 X166.893 Y33.888 E18.44991
G1 X167.479 Y34.386 E18.47549
G1 X168.011 Y34.942 E18.50108
G1 X168.213 Y35.203 E18.51206
G1 X168.544 Y35.341 E18.52398
G1 X169.219 Y35.71 E18.54957
G1 X169.83 Y36.129 E18.57421
G1 X184.261 Y47.142 E19.17799
G1 X184.848 Y47.64 E19.20359
G1 X185.379 Y48.196 E19.22917
G1 X185.85 Y48.804 E19.25475
G1 X186.255 Y49.458 E19.28033
G1 X186.591 Y50.15 E19.30592
G1 X186.852 Y50.873 E19.33148
G1 X187.037 Y51.62 E19.35708
G1 X187.144 Y52.382 E19.38267
G1 X187.171 Y53.15 E19.40823
G1 X187.118 Y53.918 E19.43384
G1 X186.986 Y54.675 E19.45939
G1 X186.775 Y55.415 E19.48499
G1 X186.489 Y56.129 E19.51057
G1 X186.131 Y56.81 E19.53616
G1 X185.655 Y57.514 E19.56442
G1 X76.461 Y200.61 E25.55123
G1 X75.963 Y201.196 E25.57681
G1 X75.407 Y201.728 E25.6024
G1 X74.799 Y202.199 E25.62798
G1 X74.145 Y202.604 E25.65357
G1 X73.453 Y202.94 E25.67915
G1 X72.73 Y203.201 E25.70472
G1 X71.983 Y203.386 E25.73031
G1 X71.222 Y203.493 E25.75587
G1 X70.453 Y203.52 E25.78147
G1 X69.686 Y203.467 E25.80704
G1 X68.928 Y203.335 E25.83263
G1 X68.188 Y203.124 E25.85822
G1 X67.474 Y202.839 E25.88379
G1 X66.793 Y202.48 E25.9094
G1 X66.089 Y202.004 E25.93766
G1 X51.658 Y190.993 E26.5414
G1 X51.072 Y190.495 E26.56698
G1 X50.54 Y189.939 E26.59257
G1 X50.342 Y189.683 E26.60334
G1 X50.216 Y189.635 E26.60782
G1 X49.53 Y189.288 E26.63339
G1 X48.72 Y188.75 E26.66573
G1 X43.709 Y184.926 E26.87538
G1 X43.122 Y184.428 E26.90099
G1 X42.591 Y183.872 E26.92656
G1 X42.12 Y183.264 E26.95214
G1 X41.715 Y182.61 E26.97772
G1 X41.379 Y181.918 E27.00331
G1 X41.118 Y181.195 E27.02888
G1 X40.933 Y180.448 E27.05447
G1 X40.826 Y179.686 E27.08007
G1 X40.799 Y178.918 E27.10562
G1 X40.806 Y178.82 E27.10889
G1 X40.74 Y178.638 E27.11533
G1 X40.555 Y177.891 E27.14093
G1 X40.449 Y177.129 E27.16652
G1 X40.422 Y176.361 E27.19208
G1 X40.475 Y175.593 E27.21768
G1 X40.608 Y174.836 E27.24324
G1 X40.819 Y174.096 E27.26884
G1 X41.105 Y173.382 E27.29442
G1 X41.464 Y172.702 E27.31999
G1 X41.938 Y172 E27.34817
G1 X45.698 Y167.073 E27.55431
G1 X46.196 Y166.486 E27.57991
G1 X46.752 Y165.955 E27.60548
G1 X47.057 Y165.719 E27.61831
G1 X47.169 Y165.439 E27.62834
G1 X47.527 Y164.759 E27.6539
G1 X48.005 Y164.051 E27.68231
G1 X51.765 Y159.123 E27.88848
G1 X52.263 Y158.537 E27.91406
G1 X52.818 Y158.005 E27.93963
G1 X53.123 Y157.769 E27.95245
G1 X53.235 Y157.489 E27.96248
G1 X53.593 Y156.809 E27.98804
G1 X54.071 Y156.101 E28.01645
G1 X57.831 Y151.174 E28.2226
G1 X58.329 Y150.587 E28.2482
G1 X58.885 Y150.056 E28.27377
G1 X59.19 Y149.82 E28.2866
G1 X59.307 Y149.528 E28.29706
G1 X59.666 Y148.848 E28.32263
G1 X60.138 Y148.151 E28.35063
G1 X63.898 Y143.224 E28.55677
G1 X64.396 Y142.637 E28.58238
G1 X64.952 Y142.106 E28.60795
G1 X65.256 Y141.871 E28.62073
G1 X65.371 Y141.583 E28.63104
G1 X65.73 Y140.903 E28.65662
G1 X66.204 Y140.201 E28.68479
G1 X69.964 Y135.274 E28.89093
G1 X70.462 Y134.687 E28.91653
G1 X71.018 Y134.156 E28.9421
G1 X71.321 Y133.921 E28.95486
G1 X71.434 Y133.64 E28.96493
G1 X71.792 Y132.96 E28.99049
G1 X72.27 Y132.252 E29.0189
G1 X76.03 Y127.324 E29.22507
G1 X76.528 Y126.738 E29.25065
G1 X77.083 Y126.206 E29.27622
G1 X77.389 Y125.969 E29.28909
G1 X77.501 Y125.69 E29.29909
G1 X77.859 Y125.01 E29.32465
G1 X78.337 Y124.302 E29.35306
G1 X82.097 Y119.374 E29.55923
G1 X82.595 Y118.788 E29.58481
G1 X83.15 Y118.256 E29.61038
G1 X83.455 Y118.02 E29.6232
G1 X83.567 Y117.74 E29.63323
G1 X83.925 Y117.06 E29.65879
G1 X84.403 Y116.352 E29.68721
G1 X88.163 Y111.425 E29.89335
G1 X88.661 Y110.838 E29.91895
G1 X89.217 Y110.307 E29.94452
G1 X89.521 Y110.072 E29.9573
G1 X89.636 Y109.784 E29.96762
G1 X89.995 Y109.104 E29.99319
G1 X90.469 Y108.402 E30.02136
G1 X94.229 Y103.475 E30.2275
G1 X94.727 Y102.888 E30.25311
G1 X95.283 Y102.357 E30.27868
G1 X95.588 Y102.121 E30.29151
G1 X95.703 Y101.834 E30.30179
G1 X96.062 Y101.154 E30.32736
G1 X96.536 Y100.452 E30.35554
G1 X100.296 Y95.525 E30.56168
G1 X100.794 Y94.938 E30.58728
G1 X101.35 Y94.407 E30.61285
G1 X101.653 Y94.172 E30.62561
G1 X101.766 Y93.891 E30.63568
G1 X102.124 Y93.211 E30.66124
G1 X102.602 Y92.503 E30.68965
G1 X106.362 Y87.575 E30.89582
G1 X106.86 Y86.989 E30.9214
G1 X107.415 Y86.457 E30.94697
G1 X107.722 Y86.22 E30.95987
G1 X107.835 Y85.937 E30.97
G1 X108.194 Y85.256 E30.99561
G1 X108.669 Y84.553 E31.02382
G0 F6000 X108.987 Y84.796
G1 F1200 X112.747 Y79.868 E31.22999
G1 X113.232 Y79.298 E31.25488
G1 X113.775 Y78.784 E31.27975
G1 X114.109 Y78.529 E31.29373
G1 X114.379 Y77.919 E31.31592
G1 X114.753 Y77.271 E31.3408
G1 X115.053 Y76.845 E31.35813
G1 X118.813 Y71.918 E31.56427
G1 X119.298 Y71.349 E31.58914
G1 X119.841 Y70.834 E31.61403
G1 X120.174 Y70.58 E31.62796
G1 X120.447 Y69.963 E31.6504
G1 X120.822 Y69.316 E31.67527
G1 X121.119 Y68.895 E31.69241
G1 X124.879 Y63.968 E31.89855
G1 X125.364 Y63.399 E31.92341
G1 X125.907 Y62.884 E31.94831
G1 X126.241 Y62.629 E31.96228
G1 X126.514 Y62.013 E31.98469
G1 X126.889 Y61.366 E32.00957
G1 X127.186 Y60.945 E32.0267
G1 X130.946 Y56.018 E32.23284
G1 X131.431 Y55.449 E32.25771
G1 X131.974 Y54.934 E32.2826
G1 X132.308 Y54.679 E32.29658
G1 X132.578 Y54.07 E32.31873
G1 X132.952 Y53.422 E32.34362
G1 X133.252 Y52.997 E32.36092
G1 X137.012 Y48.069 E32.56709
G1 X137.497 Y47.499 E32.59198
G1 X138.04 Y46.985 E32.61685
G1 X138.374 Y46.73 E32.63082
G1 X138.644 Y46.12 E32.65301
G1 X139.018 Y45.472 E32.6779
G1 X139.318 Y45.046 E32.69523
G1 X143.078 Y40.119 E32.90137
G1 X143.563 Y39.55 E32.92623
G1 X144.106 Y39.035 E32.95112
G1 X144.44 Y38.78 E32.9651
G1 X144.713 Y38.164 E32.98751
G1 X145.088 Y37.517 E33.01238
G1 X145.385 Y37.096 E33.02952
G1 X149.145 Y32.169 E33.23566
G1 X149.63 Y31.6 E33.26053
G1 X150.173 Y31.085 E33.28542
G1 X150.768 Y30.631 E33.31031
G1 X151.408 Y30.244 E33.33519
G1 X152.085 Y29.927 E33.36005
G1 X152.793 Y29.684 E33.38495
G1 X153.522 Y29.518 E33.40981
G1 X154.265 Y29.43 E33.4347
G1 X154.852 Y29.425 E33.45422
G1 X155.534 Y29.197 E33.47814
G1 X156.264 Y29.037 E33.503
G1 X157.008 Y28.956 E33.52789
G1 X157.756 Y28.956 E33.55277
G1 X158.5 Y29.034 E33.57765
G1 X159.231 Y29.192 E33.60252
G1 X159.941 Y29.427 E33.6274
G1 X160.623 Y29.737 E33.65231
G1 X161.267 Y30.117 E33.67718
G1 X161.637 Y30.381 E33.6923
G1 X166.65 Y34.206 E33.90203
G1 X167.22 Y34.691 E33.92692
G1 X167.734 Y35.234 E33.95179
G1 X167.953 Y35.521 E33.9638
G1 X168.573 Y35.803 E33.98645
G1 X169.217 Y36.183 E34.01132
G1 X169.588 Y36.447 E34.02647
G1 X184.019 Y47.46 E34.63024
G1 X184.588 Y47.945 E34.65511
G1 X185.103 Y48.488 E34.68
G1 X185.557 Y49.083 E34.7049
G1 X185.944 Y49.723 E34.72977
G1 X186.261 Y50.4 E34.75463
G1 X186.504 Y51.108 E34.77953
G1 X186.67 Y51.837 E34.8044
G1 X186.758 Y52.58 E34.82928
G1 X186.765 Y53.328 E34.85416
G1 X186.693 Y54.073 E34.87906
G1 X186.542 Y54.805 E34.90392
G1 X186.313 Y55.518 E34.92882
G1 X186.01 Y56.201 E34.95368
G1 X185.635 Y56.849 E34.97858
G1 X185.337 Y57.271 E34.99576
G1 X76.143 Y200.367 E40.98256
G1 X75.658 Y200.937 E41.00746
G1 X75.115 Y201.452 E41.03235
G1 X74.52 Y201.905 E41.05722
G1 X73.88 Y202.293 E41.08211
G1 X73.203 Y202.61 E41.10698
G1 X72.495 Y202.853 E41.13187
G1 X71.766 Y203.019 E41.15674
G1 X71.023 Y203.107 E41.18163
G1 X70.275 Y203.114 E41.20651
G1 X69.531 Y203.042 E41.23137
