; SimplyPrint Slicer 0.0.0
; generated by PrusaSlicer 2.9.3 on 2026-01-03 at 16:04:01 UTC

; 

; external perimeters extrusion width = 0.42mm
; perimeters extrusion width = 0.44mm
; infill extrusion width = 0.44mm
; solid infill extrusion width = 0.44mm
; top infill extrusion width = 0.40mm
; first layer extrusion width = 0.42mm

M201 X500 Y500 Z100 E5000 ; sets maximum accelerations, mm/sec^2
M203 X500 Y500 Z10 E60 ; sets maximum feedrates, mm / sec
M204 S500 T1000 ; sets acceleration (S) and retract acceleration (R), mm/sec^2
M205 X8.00 Y8.00 Z0.40 E5.00 ; sets the jerk limits, mm/sec
M205 S0 T0 ; sets the minimum extruding and travel feed rate, mm/sec

; printing object model.stl id:0 copy 0
; stop printing object model.stl id:0 copy 0

;TYPE:Custom
G90 ; use absolute coordinates
M83 ; extruder relative mode
M104 S150 ; set temporary nozzle temp to prevent oozing during homing
M140 S60 ; set final bed temp
G4 S30 ; allow partial nozzle warmup
G28 ; home all axis
G1 Z50 F240
G1 X2.0 Y10 F3000
M104 S215 ; set final nozzle temp
M190 S60 ; wait for bed temp to stabilize
M109 S215 ; wait for nozzle temp to stabilize
G1 Z0.28 F240
G92 E0
G1 X2.0 Y140 E10 F1500 ; prime the nozzle
G1 X2.3 Y140 F5000
G92 E0
G1 X2.3 Y10 E10 F1200 ; prime the nozzle
G92 E0
G21 ; set units to millimeters
G90 ; use absolute coordinates
M83 ; use relative distances for extrusion

M900 K0.05 ; Filament gcode LA 1.5
M900 K200 ; Filament gcode LA 1.0




M107
;LAYER_CHANGE
;Z:0.2
;HEIGHT:0.2
G1 E-2 F2400
G1 Z.2 F9000
G1 X103.808 Y108.057
G1 E2 F2400
M204 S500
;TYPE:Skirt/Brim
;WIDTH:0.42
G1 F1200
G1 X106.25 Y107.209 E.08105
G1 X113.75 Y107.209 E.23516
G1 X115.47 Y107.604 E.05533
G1 X116.845 Y108.71 E.05533
G1 X117.693 Y111.152 E.08105
G1 X117.693 Y115.252 E.12855
G1 X117.381 Y116.788 E.04914
G1 X117.097 Y117.371 E.02033
G1 X116.543 Y118.133 E.02954
G1 X115.938 Y118.695 E.02589
G1 X114.704 Y119.414 E.04478
G1 X113.138 Y119.897 E.05138
G1 X111.346 Y120.149 E.05674
G1 X109.119 Y120.179 E.06983
G1 X107.312 Y119.984 E.05699
G1 X105.776 Y119.6 E.04964
G1 X104.637 Y119.085 E.03919
G1 X104.109 Y118.733 E.0199
G1 X103.49 Y118.173 E.02617
G1 X102.9 Y117.37 E.03124
G1 X102.636 Y116.832 E.01879
G1 X102.307 Y115.252 E.0506
G1 X102.307 Y111.152 E.12855
G1 X102.702 Y109.432 E.05533
G1 X103.77 Y108.103 E.05346
G1 X104.076 Y108.367 F9000
G1 F1200
G1 X104.175 Y108.253 E.00473
G1 X106.25 Y107.586 E.06834
G1 X113.75 Y107.586 E.23516
G1 X115.38 Y107.981 E.05259
G1 X116.649 Y109.077 E.05257
G1 X117.316 Y111.152 E.06834
G1 X117.316 Y115.252 E.12855
G1 X117.034 Y116.641 E.04444
G1 X116.767 Y117.187 E.01906
G1 X116.267 Y117.877 E.02672
G1 X115.712 Y118.394 E.02378
G1 X114.551 Y119.069 E.04211
G1 X113.064 Y119.527 E.04879
G1 X111.32 Y119.773 E.05522
G1 X109.134 Y119.802 E.06855
G1 X107.371 Y119.612 E.0556
G1 X105.904 Y119.245 E.04741
G1 X104.822 Y118.756 E.03723
G1 X103.764 Y117.913 E.04242
G1 X103.23 Y117.187 E.02826
G1 X102.986 Y116.691 E.01733
G1 X102.684 Y115.252 E.0461
G1 X102.684 Y111.152 E.12855
G1 X103.079 Y109.522 E.05259
G1 X104.037 Y108.413 E.04595
G1 X104.328 Y108.686 F9000
G1 F1200
G1 X104.539 Y108.461 E.00967
G1 X106.25 Y107.963 E.05587
G1 X113.75 Y107.963 E.23516
G1 X115.285 Y108.357 E.04969
G1 X116.441 Y109.441 E.04969
G1 X116.939 Y111.152 E.05587
G1 X116.939 Y115.252 E.12855
G1 X116.687 Y116.494 E.03974
G1 X116.438 Y117.004 E.01779
G1 X115.99 Y117.621 E.02391
G1 X115.485 Y118.093 E.02167
G1 X114.397 Y118.725 E.03945
G1 X113.12 Y119.128 E.04199
G1 X111.385 Y119.389 E.05501
G1 X109.509 Y119.439 E.05884
G1 X107.752 Y119.29 E.05529
G1 X106.223 Y118.953 E.04909
G1 X105.006 Y118.427 E.04157
G1 X104.037 Y117.653 E.03888
G1 X103.56 Y117.003 E.02528
G1 X103.335 Y116.55 E.01586
G1 X103.061 Y115.252 E.04159
G1 X103.061 Y111.152 E.12855
G1 X103.455 Y109.617 E.04969
G1 X104.287 Y108.73 E.03813
G1 E-2 F2400
; printing object model.stl id:0 copy 0
G1 X107.314 Y112.216 F9000
G1 E2 F2400
;TYPE:Perimeter
;WIDTH:0.419999
G1 F1200
G1 X112.686 Y112.216 E.16844
G1 X112.686 Y113.664 E.0454
G1 X112.686 Y114.808 E.03587
G1 X112.331 Y114.942 E.0119
G1 X111.841 Y115.046 E.01571
G1 X110.929 Y115.156 E.0288
G1 X109.943 Y115.192 E.03094
G1 X109.288 Y115.173 E.02055
G1 X108.534 Y115.098 E.02376
G1 X107.825 Y114.98 E.02254
G1 X107.314 Y114.815 E.01684
G1 X107.314 Y112.276 E.07961
G1 X106.937 Y111.839 F9000
G1 F1200
G1 X113.063 Y111.839 E.19208
G1 X113.063 Y113.664 E.05722
G1 X113.063 Y115.045 E.0433
G1 X112.857 Y115.161 E.00741
G1 X112.452 Y115.301 E.01344
G1 X111.95 Y115.413 E.01613
G1 X111.023 Y115.53 E.0293
G1 X109.995 Y115.571 E.03226
G1 X109.309 Y115.553 E.02152
G1 X108.655 Y115.499 E.02058
G1 X107.833 Y115.367 E.0261
G1 X107.394 Y115.255 E.01421
G1 X106.937 Y115.049 E.01572
G1 X106.937 Y111.899 E.09877
G1 X106.56 Y111.462 F9000
;TYPE:External perimeter
G1 F1200
G1 X113.44 Y111.462 E.21572
G1 X113.44 Y113.664 E.06904
G1 X113.44 Y115.095 E.04487
G1 X113.385 Y115.273 E.00584
G1 X113.042 Y115.489 E.01271
G1 X112.552 Y115.666 E.01634
G1 X112.014 Y115.784 E.01727
G1 X111.054 Y115.906 E.03034
G1 X109.998 Y115.948 E.03314
G1 X109.289 Y115.929 E.02224
G1 X108.609 Y115.874 E.02139
G1 X107.773 Y115.739 E.02655
G1 X107.296 Y115.62 E.01541
G1 X106.81 Y115.416 E.01653
G1 X106.628 Y115.272 E.00728
G1 X106.56 Y115.129 E.00496
G1 X106.56 Y111.522 E.11309
G1 X106.956 Y111.463 F9000
G1 E-2 F2400
G1 X112.565 Y113.114 F9000
G1 E2 F2400
;TYPE:Solid infill
;WIDTH:0.427218
G1 F1200
G1 X111.957 Y112.507 E.02745
G1 X111.414 Y112.507 E.01735
G1 X112.395 Y113.488 E.04433
G1 X112.395 Y114.032 E.01738
G1 X110.87 Y112.507 E.06892
G1 X110.327 Y112.507 E.01735
G1 X112.395 Y114.575 E.09345
G1 X112.395 Y114.618 E.00137
G1 X111.996 Y114.719 E.01315
G1 X109.783 Y112.507 E.09998
G1 X109.24 Y112.507 E.01735
G1 X111.527 Y114.793 E.10333
G1 X111.044 Y114.854 E.01556
G1 X108.696 Y112.507 E.10608
G1 X108.153 Y112.507 E.01735
G1 X110.528 Y114.881 E.1073
G1 X110.005 Y114.902 E.01673
G1 X107.605 Y112.507 E.10834
G1 X107.605 Y113.045 E.01719
G1 X109.448 Y114.889 E.08331
G1 X108.863 Y114.847 E.01874
G1 X107.605 Y113.589 E.05685
G1 X107.605 Y114.132 E.01735
G1 X108.432 Y114.959 E.03737
M106 S84.15
;LAYER_CHANGE
;Z:0.32
;HEIGHT:0.12
;BEFORE_LAYER_CHANGE
G92 E0
;0.32


G1 E-2 F2400
G1 Z.32 F9000
;AFTER_LAYER_CHANGE
;0.32
M104 S210 ; set temperature
; stop printing object model.stl id:0 copy 0
G1 X107.884 Y120.046
G1 E2 F2400
;TYPE:Skirt/Brim
;WIDTH:0.42
G1 F1177
G1 X107.312 Y119.984 E.01132
G1 X105.776 Y119.6 E.03114
G1 X104.637 Y119.085 E.02459
G1 X104.109 Y118.733 E.01248
G1 X103.49 Y118.173 E.01642
G1 X102.9 Y117.37 E.0196
G1 X102.636 Y116.832 E.01179
G1 X102.307 Y115.252 E.03174
G1 X102.307 Y111.152 E.08064
G1 X102.702 Y109.432 E.03471
G1 X103.808 Y108.057 E.03471
G1 X106.25 Y107.209 E.05085
G1 X113.75 Y107.209 E.14752
G1 X115.47 Y107.604 E.03471
G1 X116.845 Y108.71 E.03471
G1 X117.693 Y111.152 E.05085
G1 X117.693 Y115.252 E.08064
G1 X117.381 Y116.788 E.03083
G1 X117.097 Y117.371 E.01276
G1 X116.543 Y118.133 E.01853
G1 X115.938 Y118.695 E.01624
G1 X114.704 Y119.414 E.02809
G1 X113.138 Y119.897 E.03223
G1 X111.346 Y120.149 E.03559
G1 X109.119 Y120.179 E.04381
G1 X107.944 Y120.052 E.02325
G1 X107.984 Y119.678 F9000
G1 F1177
G1 X107.371 Y119.612 E.01213
G1 X105.904 Y119.245 E.02974
G1 X104.822 Y118.756 E.02335
G1 X103.764 Y117.913 E.02661
G1 X103.23 Y117.187 E.01773
G1 X102.986 Y116.691 E.01087
G1 X102.684 Y115.252 E.02892
G1 X102.684 Y111.152 E.08064
G1 X103.079 Y109.522 E.03299
G1 X104.175 Y108.253 E.03298
G1 X106.25 Y107.586 E.04287
G1 X113.75 Y107.586 E.14752
G1 X115.38 Y107.981 E.03299
G1 X116.649 Y109.077 E.03298
G1 X117.316 Y111.152 E.04287
G1 X117.316 Y115.252 E.08064
G1 X117.034 Y116.641 E.02788
G1 X116.767 Y117.187 E.01195
G1 X116.267 Y117.877 E.01676
G1 X115.712 Y118.394 E.01492
G1 X114.551 Y119.069 E.02641
G1 X113.064 Y119.527 E.0306
G1 X111.32 Y119.773 E.03464
G1 X109.134 Y119.802 E.043
G1 X108.044 Y119.684 E.02156
G1 X108.075 Y119.318 F9000
G1 F1177
G1 X107.752 Y119.29 E.00638
G1 X106.223 Y118.953 E.0308
G1 X105.006 Y118.427 E.02608
G1 X104.037 Y117.653 E.02439
G1 X103.56 Y117.003 E.01586
G1 X103.335 Y116.55 E.00995
G1 X103.061 Y115.252 E.02609
G1 X103.061 Y111.152 E.08064
G1 X103.455 Y109.617 E.03117
G1 X104.539 Y108.461 E.03117
G1 X106.25 Y107.963 E.03505
G1 X113.75 Y107.963 E.14752
G1 X115.285 Y108.357 E.03117
G1 X116.441 Y109.441 E.03117
G1 X116.939 Y111.152 E.03505
G1 X116.939 Y115.252 E.08064
G1 X116.687 Y116.494 E.02493
G1 X116.438 Y117.004 E.01116
G1 X115.99 Y117.621 E.015
G1 X115.485 Y118.093 E.0136
G1 X114.397 Y118.725 E.02475
G1 X113.12 Y119.128 E.02634
G1 X111.385 Y119.389 E.03451
G1 X109.509 Y119.439 E.03691
G1 X108.135 Y119.323 E.02712
G1 E-2 F2400
; printing object model.stl id:0 copy 0
G1 X107.278 Y114.733 F9000
G1 E2 F2400
;TYPE:Perimeter
;WIDTH:0.439999
G1 F1177
G1 X107.278 Y112.18 E.05276
G1 X112.722 Y112.18 E.11251
G1 X112.722 Y113.663 E.03065
G1 X112.722 Y114.848 E.02449
G1 X112.547 Y114.915 E.00387
G1 X111.824 Y115.084 E.01534
G1 X110.93 Y115.192 E.01861
G1 X109.942 Y115.228 E.02043
G1 X109.286 Y115.208 E.01356
G1 X108.528 Y115.133 E.01574
G1 X107.815 Y115.014 E.01494
G1 X107.278 Y114.849 E.01161
G1 X107.278 Y114.793 E.00116
G1 X106.935 Y115.124 F9000
G1 F1177
G1 X106.864 Y115.075 E.00178
G1 X106.864 Y111.766 E.06839
G1 X113.136 Y111.766 E.12962
G1 X113.136 Y113.663 E.03921
G1 X113.112 Y115.11 E.02991
G1 X112.69 Y115.307 E.00962
G1 X112.036 Y115.466 E.01391
G1 X111.477 Y115.546 E.01167
G1 X110.946 Y115.606 E.01104
G1 X109.931 Y115.642 E.02099
G1 X109.252 Y115.621 E.01404
G1 X108.462 Y115.542 E.01641
G1 X107.708 Y115.415 E.0158
G1 X107.054 Y115.205 E.0142
G1 X106.985 Y115.158 E.00173
G1 X106.591 Y115.374 F9000
;TYPE:External perimeter
;WIDTH:0.419999
G1 F1177
G1 X106.573 Y115.362 E.00043
G1 X106.46 Y115.197 E.00393
G1 X106.46 Y111.362 E.07543
G1 X113.54 Y111.362 E.13926
G1 X113.54 Y113.663 E.04526
G1 X113.54 Y115.184 E.02992
G1 X113.409 Y115.398 E.00494
G1 X113.315 Y115.46 E.00221
G1 X112.814 Y115.693 E.01087
G1 X112.03 Y115.883 E.01587
G1 X111.527 Y115.947 E.00997
G1 X110.963 Y116.01 E.01116
G1 X109.92 Y116.046 E.02053
G1 X109.219 Y116.024 E.01379
G1 X108.398 Y115.941 E.01623
G1 X107.603 Y115.805 E.01586
G1 X106.903 Y115.58 E.01446
G1 X106.641 Y115.407 E.00618
G1 X106.472 Y115.045 F9000
G1 E-2 F2400
G1 X112.195 Y112.499 F9000
G1 E2 F2400
;TYPE:Solid infill
;WIDTH:0.439999
G1 F1177
G1 X107.597 Y112.499 E.09503
G1 X107.597 Y114.624 E.04392
G1 X108.579 Y114.818 E.02069
G1 X109.311 Y114.89 E.0152
G1 X109.95 Y114.909 E.01321
G1 X110.917 Y114.873 E.02
G1 X111.782 Y114.768 E.01801
G1 X112.403 Y114.62 E.01319
G1 X112.403 Y112.499 E.04383
G1 X111.988 Y112.914 E.01213
G1 X111.988 Y114.295 E.02854
G1 X111.747 Y114.355 E.00513
G1 X110.934 Y114.458 E.01694
G1 X109.987 Y114.495 E.01959
G1 X109.367 Y114.479 E.01282
G1 X108.785 Y114.432 E.01207
G1 X108.012 Y114.307 E.01618
G1 X108.012 Y112.914 E.02879
G1 X111.781 Y112.914 E.07789
G1 X109.982 Y113.413 F9000
;WIDTH:0.609255
G1 F1177
G1 X110.87 Y113.404 E.02585
;WIDTH:0.591591
G1 X111.51 Y113.392 E.01807
;WIDTH:0.56838
G1 X111.51 Y113.903 E.01383
;WIDTH:0.591591
G1 X110.881 Y113.969 E.01785
;WIDTH:0.609255
G1 X109.974 Y113.996 E.02642
G1 X109.385 Y113.984 E.01715
;WIDTH:0.601767
G1 X108.492 Y113.899 E.02578
;WIDTH:0.571123
G1 X108.492 Y113.394 E.01374
;WIDTH:0.580102
G1 X108.876 Y113.398 E.01062
;WIDTH:0.601767
G1 X109.409 Y113.409 E.01532
;WIDTH:0.606548
G1 X109.775 Y113.411 E.01061
M106 S170.85
;LAYER_CHANGE
;Z:0.44
;HEIGHT:0.12
;BEFORE_LAYER_CHANGE
G92 E0
;0.44


G1 E-2 F2400
G1 Z.44 F9000
;AFTER_LAYER_CHANGE
;0.44
G1 X107.43 Y114.896
G1 E2 F2400
;TYPE:Perimeter
;WIDTH:0.439999
G1 F900
G1 X107.278 Y114.849 E.00329
G1 X107.278 Y112.18 E.05516
G1 X112.722 Y112.18 E.11251
G1 X112.722 Y113.663 E.03065
G1 X112.722 Y114.848 E.02449
G1 X112.547 Y114.915 E.00387
G1 X111.824 Y115.084 E.01534
G1 X110.93 Y115.192 E.01861
G1 X109.942 Y115.228 E.02043
G1 X109.286 Y115.208 E.01356
G1 X108.528 Y115.133 E.01574
G1 X107.815 Y115.014 E.01494
G1 X107.488 Y114.913 E.00707
G1 X106.864 Y115.073 F9000
G1 F900
G1 X106.864 Y111.766 E.06835
G1 X113.136 Y111.766 E.12962
G1 X113.136 Y113.663 E.03921
G1 X113.112 Y115.11 E.02991
G1 X112.69 Y115.307 E.00962
G1 X112.036 Y115.466 E.01391
G1 X111.477 Y115.546 E.01167
G1 X110.946 Y115.606 E.01104
G1 X109.931 Y115.642 E.02099
G1 X109.252 Y115.621 E.01404
G1 X108.462 Y115.542 E.01641
G1 X107.708 Y115.415 E.0158
G1 X107.054 Y115.205 E.0142
G1 X106.912 Y115.108 E.00355
G1 X106.591 Y115.374 F9000
;TYPE:External perimeter
;WIDTH:0.419999
G1 F900
G1 X106.573 Y115.362 E.00043
G1 X106.46 Y115.197 E.00393
G1 X106.46 Y111.362 E.07543
G1 X113.54 Y111.362 E.13926
G1 X113.54 Y113.663 E.04526
G1 X113.54 Y115.184 E.02992
G1 X113.409 Y115.398 E.00494
G1 X113.315 Y115.46 E.00221
G1 X112.814 Y115.693 E.01087
G1 X112.03 Y115.883 E.01587
G1 X111.527 Y115.947 E.00997
G1 X110.963 Y116.01 E.01116
G1 X109.92 Y116.046 E.02053
G1 X109.219 Y116.024 E.01379
G1 X108.398 Y115.941 E.01623
G1 X107.603 Y115.805 E.01586
G1 X106.903 Y115.58 E.01446
G1 X106.641 Y115.407 E.00618
G1 X106.472 Y115.045 F9000
G1 E-2 F2400
G1 X107.597 Y112.707 F9000
G1 E2 F2400
;TYPE:Solid infill
;WIDTH:0.439999
G1 F900
G1 X107.597 Y114.624 E.03962
G1 X108.579 Y114.818 E.02069
G1 X109.311 Y114.89 E.0152
G1 X109.95 Y114.909 E.01321
G1 X110.917 Y114.873 E.02
G1 X111.782 Y114.768 E.01801
G1 X112.403 Y114.62 E.01319
G1 X112.403 Y112.499 E.04383
G1 X107.597 Y112.499 E.09932
G1 X108.012 Y112.914 E.01213
G1 X111.988 Y112.914 E.08217
G1 X111.988 Y114.295 E.02854
G1 X111.747 Y114.355 E.00513
G1 X110.934 Y114.458 E.01694
G1 X109.987 Y114.495 E.01959
G1 X109.367 Y114.479 E.01282
G1 X108.785 Y114.432 E.01207
G1 X108.012 Y114.307 E.01618
G1 X108.012 Y113.121 E.02451
G1 X108.492 Y113.394 E.01141
;WIDTH:0.580104
G1 X108.876 Y113.398 E.01062
;WIDTH:0.60177
G1 X109.409 Y113.409 E.01532
;WIDTH:0.609256
G1 X110.87 Y113.404 E.04253
;WIDTH:0.59159
G1 X111.51 Y113.392 E.01807
;WIDTH:0.56838
G1 X111.51 Y113.903 E.01383
;WIDTH:0.59159
G1 X110.881 Y113.969 E.01785
;WIDTH:0.609256
G1 X109.974 Y113.996 E.02642
G1 X109.385 Y113.984 E.01715
;WIDTH:0.60177
G1 X108.492 Y113.899 E.02578
;WIDTH:0.571124
G1 X108.492 Y113.601 E.00811
M106 S255
;LAYER_CHANGE
;Z:0.56
;HEIGHT:0.12
;BEFORE_LAYER_CHANGE
G92 E0
;0.56


G1 Z.56 F9000
;AFTER_LAYER_CHANGE
;0.56
G1 X107.43 Y114.896
;TYPE:Perimeter
;WIDTH:0.439999
G1 F900
G1 X107.278 Y114.849 E.00329
G1 X107.278 Y112.18 E.05516
G1 X112.722 Y112.18 E.11251
G1 X112.722 Y113.663 E.03065
G1 X112.722 Y114.848 E.02449
G1 X112.547 Y114.915 E.00387
G1 X111.824 Y115.084 E.01534
G1 X110.93 Y115.192 E.01861
G1 X109.942 Y115.228 E.02043
G1 X109.286 Y115.208 E.01356
G1 X108.528 Y115.133 E.01574
G1 X107.815 Y115.014 E.01494
G1 X107.488 Y114.913 E.00707
G1 X106.864 Y115.073 F9000
G1 F900
G1 X106.864 Y111.766 E.06835
G1 X113.136 Y111.766 E.12962
G1 X113.136 Y113.663 E.03921
G1 X113.112 Y115.11 E.02991
G1 X112.69 Y115.307 E.00962
G1 X112.036 Y115.466 E.01391
G1 X111.477 Y115.546 E.01167
G1 X110.946 Y115.606 E.01104
G1 X109.931 Y115.642 E.02099
G1 X109.252 Y115.621 E.01404
G1 X108.462 Y115.542 E.01641
G1 X107.708 Y115.415 E.0158
G1 X107.054 Y115.205 E.0142
G1 X106.912 Y115.108 E.00355
G1 X106.591 Y115.374 F9000
;TYPE:External perimeter
;WIDTH:0.419999
G1 F900
G1 X106.573 Y115.362 E.00043
G1 X106.46 Y115.197 E.00393
G1 X106.46 Y111.362 E.07543
G1 X113.54 Y111.362 E.13926
G1 X113.54 Y113.663 E.04526
G1 X113.54 Y115.184 E.02992
G1 X113.409 Y115.398 E.00494
G1 X113.315 Y115.46 E.00221
G1 X112.814 Y115.693 E.01087
G1 X112.03 Y115.883 E.01587
G1 X111.527 Y115.947 E.00997
G1 X110.963 Y116.01 E.01116
G1 X109.92 Y116.046 E.02053
G1 X109.219 Y116.024 E.01379
G1 X108.398 Y115.941 E.01623
G1 X107.603 Y115.805 E.01586
G1 X106.903 Y115.58 E.01446
G1 X106.641 Y115.407 E.00618
G1 X106.472 Y115.045 F9000
G1 E-2 F2400
G1 X112.195 Y112.499 F9000
G1 E2 F2400
;TYPE:Solid infill
;WIDTH:0.439999
G1 F900
G1 X107.597 Y112.499 E.09503
G1 X107.597 Y114.624 E.04392
G1 X108.579 Y114.818 E.02069
G1 X109.311 Y114.89 E.0152
G1 X109.95 Y114.909 E.01321
G1 X110.917 Y114.873 E.02
G1 X111.782 Y114.768 E.01801
